src/home/img/benefit-search.svg

<svg height="80" viewBox="0 0 85 80" width="85" xmlns="http://www.w3.org/2000/svg" xmlns:xlink="http://www.w3.org/1999/xlink"><linearGradient id="a" x1="50%" x2="50%" y1="0%" y2="100%"><stop offset="0" stop-color="#3f6abc"/><stop offset="1" stop-color="#1851be"/></linearGradient><filter id="b" height="110.6%" width="110.6%" x="-5.3%" y="-5.3%"><feGaussianBlur in="SourceGraphic" stdDeviation="1.05"/></filter><radialGradient id="c" cx="57.589%" cy="6.679%" gradientTransform="matrix(0 1 -.77108 0 .627 -.51)" r="100%"><stop offset="0" stop-color="#fff"/><stop offset="1" stop-color="#aec3eb"/></radialGradient><filter id="d" height="106.1%" width="104.7%" x="-2.3%" y="-3%"><feGaussianBlur in="SourceGraphic" stdDeviation=".65"/></filter><mask id="e" fill="#fff"><path d="m.5 13.84c0-7.367 5.973-13.34 13.34-13.34h48.32c7.367 0 13.34 5.973 13.34 13.34v48.32c0 7.367-5.973 13.34-13.34 13.34h-48.32c-7.367 0-13.34-5.973-13.34-13.34z" fill="#fff" fill-rule="evenodd"/></mask><g fill="none" fill-rule="evenodd"><g transform="translate(3 2)"><path d="m.5 13.84c0-7.367 5.973-13.34 13.34-13.34h48.32c7.367 0 13.34 5.973 13.34 13.34v48.32c0 7.367-5.973 13.34-13.34 13.34h-48.32c-7.367 0-13.34-5.973-13.34-13.34z" mask="url(#e)"/><path d="m.5 13.84c0-7.367 5.973-13.34 13.34-13.34h48.32c7.367 0 13.34 5.973 13.34 13.34v48.32c0 7.367-5.973 13.34-13.34 13.34h-48.32c-7.367 0-13.34-5.973-13.34-13.34z"/><path d="m.5 13.84c0-7.367 5.973-13.34 13.34-13.34h48.32c7.367 0 13.34 5.973 13.34 13.34v48.32c0 7.367-5.973 13.34-13.34 13.34h-48.32c-7.367 0-13.34-5.973-13.34-13.34z"/><g fill="url(#a)" fill-rule="nonzero" stroke="#fff" stroke-opacity=".01" stroke-width="1.68"><path d="m.5 13.84c0-7.367 5.973-13.34 13.34-13.34h48.32c7.367 0 13.34 5.973 13.34 13.34v48.32c0 7.367-5.973 13.34-13.34 13.34h-48.32c-7.367 0-13.34-5.973-13.34-13.34z" filter="url(#b)"/><path d="m.5 13.84c0-7.367 5.973-13.34 13.34-13.34h48.32c7.367 0 13.34 5.973 13.34 13.34v48.32c0 7.367-5.973 13.34-13.34 13.34h-48.32c-7.367 0-13.34-5.973-13.34-13.34z"/></g></g><g fill="url(#c)" fill-rule="nonzero" transform="translate(1 9)"><path d="m49.3095238 4c14.5309524 0 26.3095238 11.7785714 26.3095238 26.3095238 0 5.2082661-1.5131807 10.0629368-4.123917 14.1483869l10.6066012 10.6006499c1.2027046 1.2160609 1.196941 3.1746938-.0128995 4.3836624l-3.6505551 3.6487543c-.5786884.5818509-1.3656315.9090227-2.1864633.9090227s-1.607775-.3271718-2.1864633-.9090227l-10.6034524-10.5983954c-4.0862786 2.6123002-8.9424137 4.1264657-14.1523744 4.1264657-14.5309524 0-26.3095238-11.7785714-26.3095238-26.3095238s11.7785714-26.3095238 26.3095238-26.3095238zm0 10.1189856c-4.2963489-.0118639-8.4188659 1.6957172-11.4484375 4.7421007-5.4617536 5.4617136-6.3048024 14.020993-2.0135719 20.4433296 4.2912306 6.4223367 12.5215743 8.9190222 19.6576862 5.9631849s11.1904876-10.5409565 9.6836351-18.1166059c-1.5068524-7.5756493-8.1552542-13.0320093-15.8793119-13.0320093zm-19.7507948-12.97263546c.6255857.95666469.5823727 2.22977167-.1064901 3.13732345-.6888627.90755178-1.8618268 1.23671423-2.8905408.81115655l-4.9583229 4.16306014c.0211329.1278746.0333029.25720252.0364123.38694411 0 1.44679261-1.1178767 2.61964981-2.4968475 2.61964981-1.3789707 0-2.4968474-1.1728572-2.4968474-2.61964981.0030219-.12995289.0153677-.25948247.0369325-.38748987l-4.9588431-4.16251438c-.4901984.21083053-1.0339719.2414146-1.5428437.0867759l-5.27979209 5.53946786c.27128035 1.0825485-.14444245 2.2261782-1.03391898 2.844252-.88947653.6180737-2.05530513.5734224-2.89946164-.1110496s-1.17929716-1.8568598-.83350799-2.9157746c.34578916-1.05891476 1.29576711-1.7693514 2.36263256-1.76688391.2160409.00316865.43076997.0358247.63877681.09714534l5.27979207-5.53946781c-.05844608-.21823723-.08957131-.44352731-.09259142-.67019374.00000003-1.44679262 1.11787671-2.61964975 2.49684748-2.61964975 1.3789708 0 2.4968475 1.17285713 2.4968475 2.61964975-.003022.12995289-.0153677.25948247-.0369326.38748987l4.958323 4.16196862c.580049-.24523786 1.2280848-.24523786 1.8081337 0l4.9593633-4.16251438c-.0213073-.12786109-.0336512-.2571891-.0369325-.38694411-.0082137-1.16014372.7066287-2.18987972 1.7615895-2.5375832 1.0549608-.34770349 2.2026363.06816708 2.828222 1.02483176z" filter="url(#d)"/><path d="m49.3095238 4c14.5309524 0 26.3095238 11.7785714 26.3095238 26.3095238 0 5.2082661-1.5131807 10.0629368-4.123917 14.1483869l10.6066012 10.6006499c1.2027046 1.2160609 1.196941 3.1746938-.0128995 4.3836624l-3.6505551 3.6487543c-.5786884.5818509-1.3656315.9090227-2.1864633.9090227s-1.607775-.3271718-2.1864633-.9090227l-10.6034524-10.5983954c-4.0862786 2.6123002-8.9424137 4.1264657-14.1523744 4.1264657-14.5309524 0-26.3095238-11.7785714-26.3095238-26.3095238s11.7785714-26.3095238 26.3095238-26.3095238zm0 10.1189856c-4.2963489-.0118639-8.4188659 1.6957172-11.4484375 4.7421007-5.4617536 5.4617136-6.3048024 14.020993-2.0135719 20.4433296 4.2912306 6.4223367 12.5215743 8.9190222 19.6576862 5.9631849s11.1904876-10.5409565 9.6836351-18.1166059c-1.5068524-7.5756493-8.1552542-13.0320093-15.8793119-13.0320093zm-19.7507948-12.97263546c.6255857.95666469.5823727 2.22977167-.1064901 3.13732345-.6888627.90755178-1.8618268 1.23671423-2.8905408.81115655l-4.9583229 4.16306014c.0211329.1278746.0333029.25720252.0364123.38694411 0 1.44679261-1.1178767 2.61964981-2.4968475 2.61964981-1.3789707 0-2.4968474-1.1728572-2.4968474-2.61964981.0030219-.12995289.0153677-.25948247.0369325-.38748987l-4.9588431-4.16251438c-.4901984.21083053-1.0339719.2414146-1.5428437.0867759l-5.27979209 5.53946786c.27128035 1.0825485-.14444245 2.2261782-1.03391898 2.844252-.88947653.6180737-2.05530513.5734224-2.89946164-.1110496s-1.17929716-1.8568598-.83350799-2.9157746c.34578916-1.05891476 1.29576711-1.7693514 2.36263256-1.76688391.2160409.00316865.43076997.0358247.63877681.09714534l5.27979207-5.53946781c-.05844608-.21823723-.08957131-.44352731-.09259142-.67019374.00000003-1.44679262 1.11787671-2.61964975 2.49684748-2.61964975 1.3789708 0 2.4968475 1.17285713 2.4968475 2.61964975-.003022.12995289-.0153677.25948247-.0369326.38748987l4.958323 4.16196862c.580049-.24523786 1.2280848-.24523786 1.8081337 0l4.9593633-4.16251438c-.0213073-.12786109-.0336512-.2571891-.0369325-.38694411-.0082137-1.16014372.7066287-2.18987972 1.7615895-2.5375832 1.0549608-.34770349 2.2026363.06816708 2.828222 1.02483176z"/></g></g></svg>

<svg xmlns="http://www.w3.org/2000/svg" xmlns:xlink="http://www.w3.org/1999/xlink" width="85" height="80" viewBox="0 0 85 80">
  <defs>
    <path id="benefit-search-a" d="M0.5,13.84 C0.5,6.473 6.473,0.5 13.84,0.5 L62.16,0.5 C69.527,0.5 75.5,6.473 75.5,13.84 L75.5,62.16 C75.5,69.527 69.527,75.5 62.16,75.5 L13.84,75.5 C6.473,75.5 0.5,69.527 0.5,62.16 L0.5,13.84 Z"/>
    <linearGradient id="benefit-search-c" x1="50%" x2="50%" y1="0%" y2="100%">
      <stop offset="0%" stop-color="#3F6ABC"/>
      <stop offset="100%" stop-color="#1851BE"/>
    </linearGradient>
    <filter id="benefit-search-d" width="110.6%" height="110.6%" x="-5.3%" y="-5.3%" filterUnits="objectBoundingBox">
      <feGaussianBlur in="SourceGraphic" stdDeviation="1.05"/>
    </filter>
    <radialGradient id="benefit-search-e" cx="57.589%" cy="6.679%" r="100%" fx="57.589%" fy="6.679%" gradientTransform="matrix(0 1 -.77108 0 .627 -.51)">
      <stop offset="0%" stop-color="#FFF"/>
      <stop offset="100%" stop-color="#AEC3EB"/>
    </radialGradient>
    <filter id="benefit-search-f" width="104.7%" height="106.1%" x="-2.3%" y="-3%" filterUnits="objectBoundingBox">
      <feGaussianBlur in="SourceGraphic" stdDeviation=".65"/>
    </filter>
  </defs>
  <g fill="none" fill-rule="evenodd" transform="translate(1 2)">
    <g transform="translate(2)">
      <mask id="benefit-search-b" fill="#fff">
        <use xlink:href="#benefit-search-a"/>
      </mask>
      <path d="M0.5,13.84 C0.5,6.473 6.473,0.5 13.84,0.5 L62.16,0.5 C69.527,0.5 75.5,6.473 75.5,13.84 L75.5,62.16 C75.5,69.527 69.527,75.5 62.16,75.5 L13.84,75.5 C6.473,75.5 0.5,69.527 0.5,62.16 L0.5,13.84 Z" mask="url(#benefit-search-b)"/>
      <path d="M0.5,13.84 C0.5,6.473 6.473,0.5 13.84,0.5 L62.16,0.5 C69.527,0.5 75.5,6.473 75.5,13.84 L75.5,62.16 C75.5,69.527 69.527,75.5 62.16,75.5 L13.84,75.5 C6.473,75.5 0.5,69.527 0.5,62.16 L0.5,13.84 Z"/>
      <path d="M0.5,13.84 C0.5,6.473 6.473,0.5 13.84,0.5 L62.16,0.5 C69.527,0.5 75.5,6.473 75.5,13.84 L75.5,62.16 C75.5,69.527 69.527,75.5 62.16,75.5 L13.84,75.5 C6.473,75.5 0.5,69.527 0.5,62.16 L0.5,13.84 Z"/>
      <path fill="url(#benefit-search-c)" fill-rule="nonzero" stroke="#FFF" stroke-opacity=".01" stroke-width="1.68" d="M0.5,13.84 C0.5,6.473 6.473,0.5 13.84,0.5 L62.16,0.5 C69.527,0.5 75.5,6.473 75.5,13.84 L75.5,62.16 C75.5,69.527 69.527,75.5 62.16,75.5 L13.84,75.5 C6.473,75.5 0.5,69.527 0.5,62.16 L0.5,13.84 Z" filter="url(#benefit-search-d)"/>
      <path fill="url(#benefit-search-c)" fill-rule="nonzero" stroke="#FFF" stroke-opacity=".01" stroke-width="1.68" d="M0.5,13.84 C0.5,6.473 6.473,0.5 13.84,0.5 L62.16,0.5 C69.527,0.5 75.5,6.473 75.5,13.84 L75.5,62.16 C75.5,69.527 69.527,75.5 62.16,75.5 L13.84,75.5 C6.473,75.5 0.5,69.527 0.5,62.16 L0.5,13.84 Z"/>
    </g>
    <g transform="translate(0 7)">
      <path fill="url(#benefit-search-e)" fill-rule="nonzero" d="M49.3095238,4 C63.8404762,4 75.6190476,15.7785714 75.6190476,30.3095238 C75.6190476,35.5177899 74.1058669,40.3724606 71.4951306,44.4579107 L82.1017318,55.0585606 C83.3044364,56.2746215 83.2986728,58.2332544 82.0888323,59.442223 L78.4382772,63.0909773 C77.8595888,63.6728282 77.0726457,64 76.2518139,64 C75.4309821,64 74.6440389,63.6728282 74.0653506,63.0909773 L63.4618982,52.4925819 C59.3756196,55.1048821 54.5194845,56.6190476 49.3095238,56.6190476 C34.7785714,56.6190476 23,44.8404762 23,30.3095238 C23,15.7785714 34.7785714,4 49.3095238,4 Z M49.3095238,14.1189856 C45.0131749,14.1071217 40.8906579,15.8147028 37.8610863,18.8610863 C32.3993327,24.3227999 31.5562839,32.8820793 35.8475144,39.3044159 C40.138745,45.7267526 48.3690887,48.2234381 55.5052006,45.2676008 C62.6413125,42.3117635 66.6956882,34.7266443 65.1888357,27.1509949 C63.6819833,19.5753456 57.0335815,14.1189856 49.3095238,14.1189856 Z M29.558729,1.14635014 C30.1843147,2.10301483 30.1411017,3.37612181 29.4522389,4.28367359 C28.7633762,5.19122537 27.5904121,5.52038782 26.5616981,5.09483014 L21.6033752,9.25789028 C21.6245081,9.38576488 21.6366781,9.5150928 21.6397875,9.64483439 C21.6397875,11.091627 20.5219108,12.2644842 19.14294,12.2644842 C17.7639693,12.2644842 16.6460926,11.091627 16.6460926,9.64483439 C16.6491145,9.5148815 16.6614603,9.38535192 16.6830251,9.25734452 L11.724182,5.09483014 C11.2339836,5.30566067 10.6902101,5.33624474 10.1813383,5.18160604 L4.90154621,10.7210739 C5.17282656,11.8036224 4.75710376,12.9472521 3.86762723,13.5653259 C2.9781507,14.1833996 1.8123221,14.1387483 0.968165589,13.4542763 C0.124009076,12.7698043 -0.211131573,11.5974165 0.134657596,10.5385017 C0.480446764,9.47958694 1.43042471,8.7691503 2.49729016,8.77161779 C2.71333106,8.77478644 2.92806013,8.80744249 3.13606697,8.86876313 L8.41585904,3.32929532 C8.35741296,3.11105809 8.32628773,2.88576801 8.32326762,2.65910158 C8.32326765,1.21230896 9.44114433,0.0394518306 10.8201151,0.0394518306 C12.1990859,0.0394518306 13.3169626,1.21230896 13.3169626,2.65910158 C13.3139406,2.78905447 13.3015949,2.91858405 13.28003,3.04659145 L18.238353,7.20856007 C18.818402,6.96332221 19.4664378,6.96332221 20.0464867,7.20856007 L25.00585,3.04604569 C24.9845427,2.9181846 24.9721988,2.78885659 24.9689175,2.65910158 C24.9607038,1.49895786 25.6755462,0.469221862 26.730507,0.121518376 C27.7854678,-0.226185111 28.9331433,0.189685455 29.558729,1.14635014 Z" filter="url(#benefit-search-f)"/>
      <path fill="url(#benefit-search-e)" fill-rule="nonzero" d="M49.3095238,4 C63.8404762,4 75.6190476,15.7785714 75.6190476,30.3095238 C75.6190476,35.5177899 74.1058669,40.3724606 71.4951306,44.4579107 L82.1017318,55.0585606 C83.3044364,56.2746215 83.2986728,58.2332544 82.0888323,59.442223 L78.4382772,63.0909773 C77.8595888,63.6728282 77.0726457,64 76.2518139,64 C75.4309821,64 74.6440389,63.6728282 74.0653506,63.0909773 L63.4618982,52.4925819 C59.3756196,55.1048821 54.5194845,56.6190476 49.3095238,56.6190476 C34.7785714,56.6190476 23,44.8404762 23,30.3095238 C23,15.7785714 34.7785714,4 49.3095238,4 Z M49.3095238,14.1189856 C45.0131749,14.1071217 40.8906579,15.8147028 37.8610863,18.8610863 C32.3993327,24.3227999 31.5562839,32.8820793 35.8475144,39.3044159 C40.138745,45.7267526 48.3690887,48.2234381 55.5052006,45.2676008 C62.6413125,42.3117635 66.6956882,34.7266443 65.1888357,27.1509949 C63.6819833,19.5753456 57.0335815,14.1189856 49.3095238,14.1189856 Z M29.558729,1.14635014 C30.1843147,2.10301483 30.1411017,3.37612181 29.4522389,4.28367359 C28.7633762,5.19122537 27.5904121,5.52038782 26.5616981,5.09483014 L21.6033752,9.25789028 C21.6245081,9.38576488 21.6366781,9.5150928 21.6397875,9.64483439 C21.6397875,11.091627 20.5219108,12.2644842 19.14294,12.2644842 C17.7639693,12.2644842 16.6460926,11.091627 16.6460926,9.64483439 C16.6491145,9.5148815 16.6614603,9.38535192 16.6830251,9.25734452 L11.724182,5.09483014 C11.2339836,5.30566067 10.6902101,5.33624474 10.1813383,5.18160604 L4.90154621,10.7210739 C5.17282656,11.8036224 4.75710376,12.9472521 3.86762723,13.5653259 C2.9781507,14.1833996 1.8123221,14.1387483 0.968165589,13.4542763 C0.124009076,12.7698043 -0.211131573,11.5974165 0.134657596,10.5385017 C0.480446764,9.47958694 1.43042471,8.7691503 2.49729016,8.77161779 C2.71333106,8.77478644 2.92806013,8.80744249 3.13606697,8.86876313 L8.41585904,3.32929532 C8.35741296,3.11105809 8.32628773,2.88576801 8.32326762,2.65910158 C8.32326765,1.21230896 9.44114433,0.0394518306 10.8201151,0.0394518306 C12.1990859,0.0394518306 13.3169626,1.21230896 13.3169626,2.65910158 C13.3139406,2.78905447 13.3015949,2.91858405 13.28003,3.04659145 L18.238353,7.20856007 C18.818402,6.96332221 19.4664378,6.96332221 20.0464867,7.20856007 L25.00585,3.04604569 C24.9845427,2.9181846 24.9721988,2.78885659 24.9689175,2.65910158 C24.9607038,1.49895786 25.6755462,0.469221862 26.730507,0.121518376 C27.7854678,-0.226185111 28.9331433,0.189685455 29.558729,1.14635014 Z"/>
    </g>
  </g>
</svg>
